X:1
T:Nun jauchz' dem Herren
T:Melchior Franck
T:David Denicke
T:Nun jauchz' dem Herren
T:CPDL   —   Creative Commons Attribution Non Commercial 3.0
C:Melchior Franck
Z:David Denicke
Z:CPDL   —   Creative Commons Attribution Non Commercial 3.0
%%score [ ( 1 2 ) 3 4 ]
L:1/8
Q:1/4=100
M:3/4
K:D
V:1 treble nm="Sopran\nAlt"
V:2 treble 
V:3 treble-8 nm="Tenor"
V:4 bass nm="Bass"
V:1
"^Fröhlich bewegt"!f! d2 f2 e2 | d4 c2 | B4!>(! A2 | A4!>)! z2 |!<(! A2 B2!<)! c2 | d4 c2 | e4 e2 | %7
w: 1. Nun jauchz' dem|Her- ren|al- le|Welt!|Kommt her, zu|sei- nem|Dienst euch|
w: 2.  Die ihr nun|wol- let|bei ihm|sein,|kommt, geht zu|sei- nen|To- ren|
!>(! c4!>)! z2 |!mf! c2 d2 c2 | B4 B2 |"^dim." B4 ^A2 | B4 z2 |!mf! ^G2!<(! =A2 B2!<)! | c4!f! d2 | %14
w: stellt!|Kommt mit Froh-|lo- cken,|säu- met|nicht,|kommt vor sein|hei- lig|
w: ein;|mit Lo- ben|durch der|Psal- men|Klang,|zu sei- nem|Tem- pel|
[Q:1/4=90]"^rit." B4!>(! A2 | !fermata!d4!>)! z2 |] %16
w: An- ge-|sicht.|
w: mit Ge-|sang.|
V:2
 A2 A2 G2 | F4 A2 | G4 F2 | E4 x2 | E2 G2 G2 | F4 A2 | ^G4 G2 | A4 x2 | A2 A2 A2 | F4 G2 | F4 F2 | %11
 F4 x2 | E2 E2 E2 | A4 A2 | G4 E2 | F4 x2 |] %16
V:3
!f! f2 d2 c2 | d4 A2 | d4!>(! d2 | c4!>)! z2 |!<(! c2 d2!<)! e2 | A4 A2 | B4 B2 |!>(! e4!>)! z2 | %8
w: 3.   Er ist voll|Güt' und|Freund- lich-|keit,|voll Treu' und|Lieb' zu|je- der|Zeit.|
w: 4.  Gott ist ein|Fels! wer|ihm ver-|traut,|der hat auf|fes- tem|Grund ge-|baut!|
!mf! e2 f2 e2 | d4 e2 |"^dim." d4 c2 | d4 z2 |!mf! B2!<(! c2 B2!<)! | e4!f! d2 | d4!>(! c2 | %15
w: Sein' Gna- de|wäh- ret|dort und|hier|und sei- ne|Wahr- heit|für und|
w: Und wie auch|Wind und|Stür- me|weh'n,|er und sein|Fel- sen-|schloss be-|
 !fermata!d4!>)! z2 |] %16
w: für.|
w: steh'n.|
V:4
!f! D,2 D,2 A,2 | B,4 F,2 | G,4!>(! D,2 | A,4!>)! z2 |!<(! A,2 G,2!<)! E,2 | D,4 F,2 | E,4 E,2 | %7
!>(! A,,4!>)! z2 |!mf! A,2 D,2 A,2 | B,4 E,2 |"^dim." F,4 F,2 | B,,4 z2 | %12
!mf! E,2!<(! A,2 ^G,2!<)! | A,4!f! F,2 | G,4!>(! A,2 | !fermata!D,4!>)! z2 |] %16

